!!!!SEGMENT: pl-kj--bj-muz-1603-iii-2--005_zelenski-wladyslaw--sechs-charakterstucke-op-17-no-5-scherzo.krn
!!!cenid: 18xx:3684
!!!COM: Żeleński, Władysław
!!!COM-rismid: pe41024455
!!!CDT:
!!!CNT:
!!!GTL: Sechs Charakterstücke op. 17
!!!OTL: No. 5 Scherzo
!!!PDT: 1872
!!!AGN:
!!!SMS-siglum: PL-Kj
!!!SMS-shelfmark: BJ Muz. 1603 III 2
!!!SMS-shelfwork: 005 G
!!!SMS-variant:
!!!SMS-altvar:
!!!NIFC-rismid:
!!!URL-scan: https://polona.pl/item/sechs-charakterstucke-fur-pianoforte-op-17-h-2,MTIzNzQyODQ2/0/#info:metadata
!!!ONB-nifc:
**kern	**dynam	**kern	**fing	**dynam
*part2	*part2	*part1	*part1	*part1
*staff2	*	*staff1	*	*
*I"PIANOFORTE	*	*I"PIANOFORTE	*	*
*I'pf	*	*I'pf	*	*
*ICklav	*	*ICklav	*	*
*Ipiano	*	*Ipiano	*	*
*clefF4	*	*clefG2	*	*
*k[b-e-]	*	*k[b-e-]	*	*
*g:	*	*g:	*	*
*M9/8	*	*M9/8	*	*
!	!	!LO:TX:a:B:t=Allegretto.	!	!
8r	.	[8dd\	.	.
=1	=1	=1	=1	=1
[4.DD/	sf	16dd/LL]	.	p
!	!	!LO:TX:b:i:t=leggiero	!	!
.	.	(16d/	.	.
.	.	16e-/	.	.
.	.	16g/	.	.
.	.	16b-/	.	.
.	.	16a/JJ	.	.
16DD/LL]	.	8g/L)	.	.
16E-/	.	.	.	.
16D/	.	8A'/ 8c 8f#X	.	.
16C/	.	.	.	.
16BB-/	.	8c'/J 8f# 8a	.	.
16AA/JJ	.	.	.	.
16GG\LL	.	(4e-^/ 4a 4cc	.	.
16D\	.	.	.	.
16G\	.	.	.	.
16A\	.	.	.	.
16B-\	.	[8d/) [8g [8b-	.	.
16A\JJ	.	.	.	.
!!LO:LB:g=original	!	!	!
=2	=2	=2	=2	=2
16G\	.	16d/LL] 16g] 16b-]	.	<
16r	.	(16b-/	.	.
4r	.	16dd/	.	.
.	.	16ff/	.	.
.	.	16ee-/	.	.
.	.	16dd/JJ	.	.
*clefG2	*	*	*	*
16r	.	16cc#X\LL	.	.
(16en/LL	.	16een\	.	.
16g/	.	16gg\	.	.
16b-/	.	16bb-\	.	.
16a/	.	16aa\	.	.
16g/JJ	.	16gg\JJ	.	.
8f#X'/L)	.	8ff#X'\L)	.	[
8e-X'/	.	8g'\ 8cc#	.	>
8d/J	.	[8f#X\J [8dd	.	]]
*clefF4	*	*	*	*
=3	=3	=3	=3	=3
[4.DD/	sf	16f#/LL] 16dd]	.	.
.	.	(16d/	.	p
.	.	16e-/	.	.
.	.	16g/	.	.
.	.	16b-/	.	.
.	.	16a/JJ	.	.
16DD/LL]	.	8g/L)	.	.
16E-/	.	.	.	.
16D/	.	8A'/ 8c 8f#X	.	>
16C/	.	.	.	.
16BB-/	.	8c'/J 8f# 8a	.	.
16AA/JJ	.	.	.	.
16GG\LL	.	(4e-/ 4a 4cc	.	]
16D\	.	.	.	.
16G\	.	.	.	.
16A\	.	.	.	.
16B-\	.	[8d/) [8g [8b-	.	.
16A\JJ	.	.	.	.
!!LO:LB:g=original	!	!	!
=4	=4	=4	=4	=4
16G\	.	16d/LL] 16g] 16b-]	.	.
16r	.	(16b-/	.	<
4r	.	16dd/	.	.
.	.	16ff/	.	.
.	.	16ee-/	.	.
.	.	16dd/JJ	.	.
16r	.	8ee-'/L)	.	.
(16E-\LL	.	.	.	.
16F\	.	8d-X'/ 8g 8a	.	.
16E-\	.	.	.	.
16D\	.	8d-/J 8g 8b-	.	.
16E-\JJ	.	.	.	.
8AA-X'\L)	.	8f'/L 8a-X 8dd-X	.	.
(16A-X\L	.	8e-'/ 8a- 8cc	.	.
16G\J	.	.	.	.
8F'\J	.	8f'/J 8a- 8ddn	.	.
=5	=5	=5	=5	=5
8C'/)	.	16e-'/LL 16g 16ee-	.	.
.	.	(16dd/	.	.
8r	.	16ff/	.	.
.	.	16ee-/	.	.
(16G\LL	.	16g/	.	.
16A\JJ	.	16an/JJ	.	.
16B-\LL	.	16b-/LL	.	.
16A\	.	16a/	.	.
16c\	.	16cc/	.	.
16A\	.	16a/	.	.
16G\	.	16g/	.	.
16F\JJ	.	16f/JJ)	.	.
8B-'\L)	.	8b-'\L	.	.
8G'\	.	8b-'\ 8dd	.	.
.	.	(8qaa/	.	.
(8En^\J 8c	.	[8b-^\J) [8gg	.	.
!!LO:LB:g=original	!	!	!
=	=	=	=	=
*^	*	*^	*	*
16d/)	[4.F\	.	16b-\LL] 16gg]	4.ryy	.	.
2.ryy	.	.	(>16ff\	.	.	p
.	.	.	16a\	.	.	.
.	.	.	16b-\	.	.	>
.	.	.	16ee-\	.	.	.
.	.	.	16dd\JJ	.	.	.
.	16F\LL]	.	4dd^/	8r	.	.
.	16F\	.	.	.	.	.
.	16G\	.	.	4e-^\ 4a	.	.
.	16F\	.	.	.	.	.
.	16En\	.	8cc/	.	.	.
.	16F\JJ	.	.	.	.	.
.	4BB-\	.	4f/) 4b- 4d/	4ryy	.	.
8.ryy	.	.	.	.	.	]
*v	*v	*	*	*	*	*
*	*	*v	*v	*	*
=6:|!|:	=6:|!|:	=6:|!|:	=6:|!|:	=6:|!|:
.	.	(8qbb-/	.	sf
8r	.	([8b-^\)	.	.
=7	=7	=7	=7	=7
(16F\LL	.	8b-\L]	.	f
16c\	.	.	.	.
16e-\	.	8a'\	.	.
16f\	.	.	.	.
16g\	.	8cc'\J)	.	.
16f\JJ	.	.	.	.
16e-\LL	.	8ff'\	.	.
16d\	.	.	.	.
16c\	.	4a-X^>T/	.	.
16B-\	.	.	.	.
16c\	.	.	.	.
16d\JJ	.	.	.	.
.	.	16qqg/LL	.	.
.	.	16qqa-/JJ	.	.
16e-\LL	.	8g'\L	.	.
16B-\	.	.	.	.
16G\	.	8b-'\ 8gg	.	.
16B-\	.	.	.	.
16E-\	.	(<[<8g\J	.	.
16G\JJ)	.	.	.	.
!!LO:LB:g=original	!	!	!
=8	=8	=8	=8	=8
(16D\LL	.	8g/L]	.	.
16A\	.	.	.	.
16c\	.	8f#X'/)	.	.
16d\	.	.	.	.
16e-\	.	8a'/J	.	.
16d\JJ	.	.	.	.
16c\LL	.	8dd'\	.	.
16Bn\	.	.	.	.
16A\	.	4fn^>T/	.	.
16G\	.	.	.	.
16A\	.	.	.	.
16B\JJ	.	.	.	.
.	.	16qqe-/LL	.	.
.	.	16qqf/JJ	.	.
16c\LL	.	8e-'/L	.	.
16G\	.	.	.	.
16E-\	.	8g'/ 8ee-	.	.
16G\	.	.	.	.
16C\	.	8e-'/J	.	.
16E-\JJ)	.	.	.	.
=9	=9	=9	=9	=9
(8D-X\L	.	(16f\LL	.	p <
.	.	16b-\	.	.
8B-\	.	16dd-X\	.	.
.	.	16cc-X\	.	.
8Dn\J	.	16b-\	.	.
.	.	16a-X\JJ	.	.
8E-\L	.	16g\LL)	.	.
.	.	(16bb-\	.	.
8d-X\	.	16aan\	.	.
.	.	16aa-X\	.	.
8E-\J	.	16gg\	.	.
.	.	16ff#X\JJ	.	.
8En\L	.	16aan\LL	.	.
.	.	16gg\	.	.
8c\	.	16een\	.	.
.	.	16cc-\	.	.
8E\J)	.	16bn\	.	.
.	.	16b-X\JJ	.	[[
!!LO:LB:g=original	!	!	!
!!LO:PB:g=original	!	!	!
=10	=10	=10	=10	=10
(8F\L	.	16a\LL	.	.
.	.	16dd\	.	.
8d\	.	16ff\	.	.
.	.	16ee-X\	.	.
8F#X\J	.	16dd\	.	.
.	.	16cc\JJ	.	.
8G\L	.	16b-\LL)	.	.
.	.	(16ddd\	.	pp
8d\	.	16ccc#X\	.	.
.	.	16cccn\	.	.
8G\J	.	16bb-\	.	.
.	.	16aa\JJ	.	.
8e-\L	.	16ccc\LL	.	.
.	.	16bb-\	.	.
8G\	.	16gg\	.	.
.	.	16ee-\	.	.
8e-\J)	.	16dd\	.	.
.	.	16dd-X\JJ	.	.
=11	=11	=11	=11	=11
*	*	*^	*	*
8A-X\	.	16cc\LL)	2.ryy	.	.
.	.	(16ddn\	.	.	.
!	!	!LO:TX:b:i:t=leggieriss.	!	!	!
8r	.	16ff\	.	.	.
.	.	16ee-\	.	.	.
8r	.	16ff\	.	.	.
.	.	16gg\JJ	.	.	.
4r	.	16bb-\LL	.	.	.
.	.	16aa-X\	.	.	.
.	.	16bbn\	.	.	.
.	.	16ccc\	.	.	.
8r	.	16fff\	.	.	.
.	.	16eee-\JJ	.	.	.
*clefG2	*	*	*	*	*
((4.d-X/ 4.g	.	16aan/LL	4.ff-X\	.	.
.	.	16bb/	.	.	.
.	.	16ccc/	.	.	.
.	.	16bb/	.	.	.
.	.	16aa/	.	.	.
.	.	16bb/JJ	.	.	.
!!LO:LB:g=original	!	!	!	!
=12	=12	=12	=12	=12	=12
!LO:TX:t=P:LO:N:vis=4:problem	!	!	!	!	!
8c/)) 8a-X	.	16ee-\LL) 16aa-X	2.ryy	.	.
.	.	(16gg\	.	.	.
8r	.	16bb-\	.	.	.
.	.	16aa-\	.	.	.
8r	.	16ddn\	.	.	.
.	.	16ee-\JJ	.	.	.
4r	.	16ff\LL	.	.	.
.	.	16ee-\	.	.	.
.	.	16bn\	.	.	.
.	.	16cc\	.	.	.
8r	.	16dd-X\	.	.	.
.	.	16cc\JJ	.	.	.
*clefF4	*	*	*	*	*
((4.D-X\ 4.G	.	16an/LL	(4.f-X\	.	.
.	.	16b/	.	.	.
.	.	16cc/	.	.	.
.	.	16b/	.	.	.
.	.	16a/	.	.	.
.	.	16b/JJ	.	.	.
*	*	*v	*v	*	*
=13	=13	=13	=13	=13
8C\)) 8A-X	.	16e-/LL)) 16a-X	.	.
.	.	16g/	.	.
8r	.	16b-/	.	.
.	.	16a-/	.	.
!	!	!	!	!LO:HP:t=cresc. molto
8r	.	16e-/	.	<
.	.	16c/JJ	.	.
8.r	.	16A-X/LL	.	.
.	.	16E-/	.	.
.	.	16C/JJ	.	.
16AA-X\LL	.	8.r	.	.
16EE-\	.	.	.	.
16CC\JJ	.	.	.	.
(>16EE-/LL	.	4r	.	.
16AA-/	.	.	.	.
16EE-/	.	.	.	.
16CC/	.	.	.	.
16EE-/	.	8r	.	.
16AA-/JJ	.	.	.	.
!!LO:LB:g=original	!	!	!
=14	=14	=14	=14	=14
16EE-X/LL	.	4r	.	.
16CC/	.	.	.	.
16EE-/	.	.	.	.
16AA-X/	.	.	.	.
16EE-/	.	8r	.	.
16CC/JJ	.	.	.	.
16EE-/LL	.	4r	.	.
16AA-/	.	.	.	.
16EE-/	.	.	.	.
16CC/	.	.	.	.
16EE-/	.	8r	.	.
16AA-/JJ	.	.	.	.
16CC/LL	.	4r	.	.
16C/	.	.	.	.
16CC/	.	.	.	.
16C/	.	.	.	.
16CC#X/	.	8r	.	.
16C#X/JJ)	.	.	.	.
=15	=15	=15	=15	=15
*	*	*^	*	*
16DD/LL	.	16r	4.ryy	.	pp
16D/	.	(16d/LL	.	.	.
16DD/	.	16e-/	.	.	.
16D/	.	16g/	.	.	.
16DD/	.	16b-/	.	.	.
16D/JJ	.	16a/JJ	.	.	.
16DD/LL	.	8g'/L)	16r	.	.
16D/	.	.	(16c\LL	.	.
16DD/	.	8f#X'/	16e-\	.	.
16D/	.	.	16d\	.	.
16DD/	.	8a'/J	16f#\	.	.
16D/JJ	.	.	16d\JJ	.	.
16DD/LL	.	(4cc^/	16a\LL	.	.
16D/	.	.	16d\	.	.
16DD/	.	.	16e-\	.	.
16D/	.	.	16d\	.	.
16DD/	.	[8b-/)	16g\	.	.
16D/JJ	.	.	16d\JJ)	.	.
!!LO:LB:g=original	!	!	!	!
=16	=16	=16	=16	=16	=16
16CC#X/LL	.	16g'\LL 16b-]	2.ryy	.	.
16C#X/	.	(16g\	.	.	.
16CC#/	.	16b-\	.	.	.
16C#/	.	16ff\	.	.	.
16CC#/	.	16ee-\	.	.	.
16C#/JJ	.	16dd\JJ	.	.	.
16CC#/LL	.	16ee-\LL	.	.	.
16C#/	.	16gg\	.	.	.
16CC#/	.	16aa\	.	.	.
16C#/	.	16bb-\	.	.	.
16CC#/	.	16aa\	.	.	.
16C#/JJ	.	16gg\JJ)	.	.	.
16CCn/LL	.	(4ff#X^/	16r	.	.
16Cn/	.	.	16a\LL	.	.
16CC/	.	.	16cc\	.	.
16C/	.	.	16ee-\	.	.
16CC/	.	8gg/)	16dd\	.	.
16C/JJ	.	.	16g\JJ	.	.
=17	=17	=17	=17	=17	=17
16AAA/LL	.	(4dd^/	16r	.	<
16AA/	.	.	(16en\LL	.	.
16AAA/	.	.	16g\	.	.
16AA/	.	.	16a\	.	.
16AAA/	.	[8cc#X/)	16b-\	.	.
16AA/JJ	.	.	16g\JJ	.	.
16AAA/LL	.	16e-X'/LL) 16cc#]	4.ryy	.	.
16AA/	.	(16g/	.	.	.
!	!	!LO:TX:b:i:t=espress.	!	!	!
16AAA/	.	16cc#/	.	.	.
16AA/	.	16gg/	.	.	.
16AAA/	.	16ff/	.	.	.
16AA/JJ	.	16een/JJ	.	.	.
16CCn/LL	.	(4ee-X^/	16r	.	.
16Cn/	.	.	16f#X\LL	.	.
16AAA/	.	.	16g\	.	.
16AA/	.	.	16f#\	.	.
16BBBn/	.	[8dd/)	16fn\	.	.
16BBn/JJ	.	.	16g\JJ)	.	.
!!LO:LB:g=original	!	!	!	!
=18	=18	=18	=18	=18	=18
16CC/LL	.	16dd/LL]	8e-\	.	[
16C/JJ	.	(16cc/	.	.	>
8r	.	16ff/	2.ryy	.	.
.	.	16ee-/	.	.	.
8r	.	16dd/	.	.	.
.	.	16cc/JJ	.	.	.
4r	.	16b-/LL	.	.	.
.	.	16a/	.	.	.
.	.	16cc/	.	.	.
.	.	16b-/	.	.	.
8r	.	16a/	.	.	.
.	.	16g/JJ	.	.	.
8r	.	8f#X/L)	.	.	]
!	!	!LO:TX:b:i:t=leggiero	!	!	!
8D'\L	.	8A'/ 8d 8f#	4ryy	.	p
8C'\J	.	8e-'/J 8f# 8a	.	.	.
=19	=19	=19	=19	=19	=19
8BB-'/	.	16d'/LL 16g 16dd	4.ryy	.	.
.	.	(16cc#X/	.	.	.
8r	.	16ee-/	.	.	.
.	.	16dd/	.	.	.
8r	.	16g/	.	.	.
.	.	16a/JJ)	.	.	.
16r	.	(4b-^/	8r	.	<
(16D\LL	.	.	.	.	.
16E-\	.	.	(<4c^\ 4f#X	.	.
16D\	.	.	.	.	.
16C#X\	.	8a/)	.	.	[ >
16D\JJ	.	.	.	.	.
!	!	!LO:TX:b:i:t=Fine.	!	!	!
4GG/)	.	4d/ 4g 4B-/)	4ryy	.	.
*	*	*v	*v	*	*
!!LO:LB:g=original	!	!	!
!!LO:PB:g=original	!	!	!
==20	==20	==20	==20	==20
*k[f#]	*	*k[f#]	*	*
*M6/8	*	*M6/8	*	*
!	!	!LO:TX:a:B:t=Un poco più tranquillo.	!	!
8r	.	[8d^/	.	]
=21	=21	=21	=21	=21
!	!	!LO:TX:b:i:t=con delicatezza	!	!
(8D/L	.	8d/]	.	.
8GG/	.	([4b^\	.	.
8D/J	.	.	.	.
8C#X/L	.	16b\KL]	.	.
.	.	8ee\	.	.
8GG/	.	.	.	.
.	.	16f#\L	.	.
8Cn/J	.	16g\	.	.
.	.	[16a\JJ	.	.
=22	=22	=22	=22	=22
8BB/L	.	16a\KL]	.	.
.	.	8dd\	.	.
8GG/	.	.	.	.
.	.	16e\L	.	.
8BB-X/J	.	16f#\	.	.
.	.	[16g\JJ	.	.
8AA/L	.	16g\KL]	.	.
.	.	8cc\	.	.
8GG/	.	.	.	.
.	.	16d\L	.	.
8AA-X/J	.	16e\	.	.
.	.	16fn\JJ)	.	.
=23	=23	=23	=23	=23
*	*	*^	*	*
8GG/L	.	(>16e/LL	4.ryy	.	.
.	.	16A/JJ	.	.	.
8DD/	.	4c/ [4d	.	.	.
8FF#/J	.	.	.	.	.
8GG/L	.	16d/KL]	4.B\	.	.
.	.	8b/	.	.	.
8DD/)	.	.	.	.	.
.	.	16g/L	.	.	.
[8GG/J	.	16f#/	.	.	.
.	.	16e/JJ)	.	.	.
!!LO:LB:g=original	!	!	!	!
=24	=24	=24	=24	=24	=24
(8GG/L]	.	(>16e/LL	4.ryy	.	.
.	.	16A/JJ	.	.	.
8DD/	.	4c/ [4d	.	.	.
8FF#/J	.	.	.	.	.
8GG/L	.	16d/KL]	8B\	.	.
.	.	8dd/	.	.	.
8DD/	.	.	4ryy	.	.
.	.	16b/L	.	.	.
8GG#X/J)	.	16fn/	.	.	.
.	.	16d/JJ)	.	.	.
=25	=25	=25	=25	=25	=25
*^	*	*	*	*	*
(8AA#X/L	4AA#\	.	(>16c#X/LL	4ryy	.	<
.	.	.	16e/	.	.	.
8G/	.	.	16g/	.	.	.
.	.	.	[16ee/JJ	.	.	.
8G#X/J	8BB\	.	16ee/LL]	8fn\	.	.
.	.	.	16dd/JJ	.	.	.
8C#X/L	4C#\	.	16e/LL	4ryy	.	.
.	.	.	16g/	.	.	.
8A#X/	.	.	16a#X/	.	.	.
.	.	.	[16gg/JJ	.	.	.
8B/J)	8D#X\	.	16gg/LL]	8an\	.	.
.	.	.	16ff#/JJ)	.	.	.
=26	=26	=26	=26	=26	=26	=26
(8E/L	4E\	.	(16g\LL	4ryy	.	.
.	.	.	16b\	.	.	.
8c#X/	.	.	16cc#X\	.	.	.
.	.	.	[16bb\JJ	.	.	.
8d#X/J	8F#\	.	16bb/LL]	8ccn\	.	.
.	.	.	[16aa/JJ	.	.	.
8G/L	4G\	.	16aa/LL]	4b\	.	[ >
.	.	.	16gg/	.	.	.
8e/)	.	.	16ff#/	.	.	.
.	.	.	16gg/	.	.	.
(8e/J	8A\	.	16b/	8g\	.	.
.	.	.	16cc#X/JJ	.	.	]
*v	*v	*	*	*	*	*
*	*	*v	*v	*	*
!!LO:LB:g=original	!	!	!
=27	=27	=27	=27	=27
!LO:TX:t=P:problem=mixed beam	!	!	!	!
8d\L)	.	8f#'/) 8dd	.	.
!	!	!LO:TX:a:i:t=poco vivace	!	!
*	*	*ped	*	*
(8AA/	.	(16ff#\LL	5	pp
!	!	!LO:TX:b:i:t=leggiero	!	!
.	.	16a\	1	.
8D/J	.	16ff#\	4	.
.	.	16dd\JJ	2	.
8AA/L	.	16gg#X\LL	5	.
.	.	16b\	.	.
8DD/	.	16gg#\	4	.
.	.	16ee\	2	.
*	*	*Xped	*	*
8AA/J	.	16aa\	5	.
.	.	16cc#X\JJ	1	.
=28	=28	=28	=28	=28
*	*	*ped	*	*
8DD/L	.	16dd\LL	4	.
.	.	16b\	2	.
8AA/	.	16ff#\	.	.
.	.	16a\	.	.
8DD/J	.	16ff#\	.	.
.	.	16dd\JJ	.	.
8AA/L	.	16gg#X\LL	.	.
.	.	16b\	.	.
8DD/	.	16gg#\	.	.
.	.	16ee\	.	.
*	*	*Xped	*	*
8AA/J)	.	16aa\	.	.
.	.	16cc#X\JJ	.	.
=29	=29	=29	=29	=29
*	*	*ped	*	*
(8DD/L	.	16dd\LL)	.	.
.	.	(16b\	.	.
8AA/	.	16ff#\	.	.
.	.	16a\	.	.
8DD/J	.	16ff#\	.	.
.	.	16dd\JJ	.	.
8AA/L	.	16gg#X\LL	.	.
.	.	16b\	.	.
8DD/	.	16gg#\	.	.
.	.	16ee\	.	.
*	*	*Xped	*	*
8AA/J	.	16aa\	.	.
.	.	16cc#X\JJ)	.	.
!!LO:LB:g=original	!	!	!	!
=	=	=	=	=
*	*	*ped	*	*
8DD/)	.	(>16ff#/LL	4	.
.	.	16dd/	.	.
!	!	!LO:TX:b:i:t=riten.	!	!
16r	.	16a/JJ	.	.
16f#>\LL	.	16r	.	.
!LO:TX:b:i:t=l.	!	!	!	!
16A\	.	8r	.	.
16D\JJ	.	.	.	.
*	*	*Xped	*	*
!	!	!LO:N:vis=8	!	!
!LO:TX:b:i:t=r.	!	!	!	!
8ryy	.	4DD</)	.	.
8r	.	.	.	.
=30:|!|:	=30:|!|:	=30:|!|:	=30:|!|:	=30:|!|:
!	!	!LO:TX:b:i:t=più sonore ed espressivo	!	!
!	!	!LO:TX:a:i:t=a tempo	!	!
8r	.	[8d/	.	.
=31	=31	=31	=31	=31
*^	*	*^	*	*
(4Fn/	8Fn\L	.	(8d/]	(4.d\	.	.
.	8GG#X\	.	[4b^/	.	.	.
8ryy	8F#X\J	.	.	.	.	.
4E/	8E\L	.	16b/KL]	4.c\)	.	.
.	.	.	8cc/	.	.	.
.	8AA\	.	.	.	.	.
.	.	.	16e/L	.	.	.
8ryy	8E\J	.	16f#/	.	.	.
.	.	.	16g/JJ	.	.	.
=32	=32	=32	=32	=32	=32	=32
4A/	8A\L	.	16g/KL	4B\	.	.
.	.	.	8d#X/	.	.	.
.	8BB\	.	.	.	.	.
.	.	.	16f#/L	.	.	.
8ryy	8F#\J	.	16g/	8B\ 8d#	.	.
.	.	.	16a/JJ	.	.	.
4E/	8E\L	.	8a/L	4B\ 4e	.	.
.	8G\)	.	8g/J)	.	.	.
8ryy	(8E\J	.	(>[8g/	8ryy	.	.
!!LO:LB:g=original	!	!	!	!	!	!
=33	=33	=33	=33	=33	=33	=33
4BB/	8BB\L	.	8g/]	4.ryy	.	<
.	8G\	.	4fn/ 4dd	.	.	.
8ryy	8BB\J	.	.	.	.	.
!	!	!	!LO:TX:b:i:t=ed un poco string.	!	!	!
4C/	8C\L	.	16dd/KL	[4.e\	.	.
.	.	.	8cc/	.	.	.
.	8G\	.	.	.	.	.
.	.	.	16g/L	.	.	.
8ryy	8C\J)	.	16a/	.	.	.
.	.	.	16b/JJ	.	.	.
=34	=34	=34	=34	=34	=34	=34
(4C#X/	8C#\L	.	8a/)	8e\]	.	.
.	8A\	.	([4ee/	4g/	.	.
8ryy	8C#\J	.	.	.	.	.
4D/	8D\L	.	16ee/KL]	[4.f#X\	.	.
.	.	.	8dd/	.	.	.
.	8A\	.	.	.	.	.
.	.	.	16a/L	.	.	.
8ryy	8D\J)	.	16b/	.	.	.
.	.	.	16ccn/JJ	.	.	.
=35	=35	=35	=35	=35	=35	=35
(4D#X/	8D#\L	.	8b/)	8f#\]	.	.
.	8B\	.	([4ff#\	4a\	.	.
8ryy	8D#\J	.	.	.	.	.
4E/	8E\L	.	16ff#/KL]	4.g\	.	.
.	.	.	8ee/	.	.	.
.	8B\	.	.	.	.	.
.	.	.	16b/L	.	.	.
8ryy	8E\J)	.	16cc#X/	.	.	.
.	.	.	16dd/JJ	.	.	.
=36	=36	=36	=36	=36	=36	=36
!	!	!	!LO:TX:b:i:t=riten.	!	!	!
(4F#/	8F#\L	.	16dd/KL	4.e\	.	.
.	.	.	8cc#X/	.	.	.
.	8A#X\	.	.	.	.	.
.	.	.	16g#X/L	.	.	.
2ryy	8F#\J	.	16a#X/	.	.	.
.	.	.	16dd/JJ	.	.	.
*	*	*	*ped	*	*	*
.	8BB\L	.	16cc#/LL	8d\ 8cc#	.	.
.	.	.	16b/JJ	.	.	.
.	8F#\	.	[4ff#/	4ryy	.	.
*	*	*	*Xped	*	*	*
.	8BB\J)	.	.	.	.	.
*	*	*	*v	*v	*	*
!!LO:LB:g=original	!	!	!	!	!
!!LO:PB:g=original	!	!	!	!	!
=37	=37	=37	=37	=37	=37
!	!	!	!LO:TX:b:B:t=a tempo	!	!
(4G#X/	8G#\L	.	16ff#\LL]	.	.
.	.	.	16ee#X\	.	.
.	8BB\	.	16g#X\	.	.
.	.	.	16b\	.	.
8ryy	8G#\J	.	16cc#X\	.	.
.	.	.	16dd\JJ	.	.
*	*	*	*ped	*	*
4F#/	8F#\L	.	8f#'/)	.	.
.	8BB\	.	([4ff#\	.	.
*	*	*	*Xped	*	*
8ryy	8F#\J)	.	.	.	.
=38	=38	=38	=38	=38	=38
(4G#X/	8G#\L	.	16ff#\LL]	.	.
.	.	.	16ee#X\	.	.
.	8BB\	.	16g#X\	.	.
.	.	.	16b\	.	.
8ryy	8G#\J	.	16cc#X\	.	.
.	.	.	16dd\JJ	.	.
*	*	*	*ped	*	*
4F#/	8F#\L	.	8f#'/)	.	.
.	8BB\	.	[4ff#\	.	.
*	*	*	*Xped	*	*
8ryy	8F#\J)	.	.	.	.
*v	*v	*	*	*	*
=39	=39	=39	=39	=39
!	!	!LO:TX:b:i:t=leggiero molto	!	!
8AA#X/	.	(16ff#\LL]	.	.
.	.	16ee#X\	.	.
[4E\ [4G [4c#X	.	16gn\	.	.
.	.	16b#X\	.	.
.	.	16cc#X\	.	.
.	.	16dd#X\JJ	.	.
4.E\] 4.G] 4.c#]	.	16ff#\LL	.	.
.	.	16ee#\	.	.
.	.	16g\	.	.
.	.	16b#\	.	.
.	.	16cc#\	.	.
.	.	16dd#\JJ)	.	.
=40	=40	=40	=40	=40
8AAn/	.	(16ff#\LL	.	.
.	.	16ee\	.	.
[4E\ [4G [4c#X	.	16g\	.	.
.	.	16b#X\	.	.
.	.	16cc#X\	.	.
.	.	16dd#X\JJ	.	.
4.E\] 4.G] 4.c#]	.	16ff#\LL	.	.
.	.	16ee\	.	.
.	.	16g\	.	.
.	.	16b#\	.	.
.	.	16cc#\	.	.
.	.	16dd#\JJ)	.	.
!!LO:LB:g=original	!	!	!	!
=41	=41	=41	=41	=41
8DD/	.	(16ff#\LL	.	.
.	.	16ee\	.	.
[4D\ [4F# [4cn	.	16f#\	.	.
.	.	16a\	.	.
.	.	16b\	.	.
.	.	16ccn\JJ	.	.
4.D\_ 4.F#_ 4.c_	.	16ee\LL	.	.
.	.	16dd\	.	.
.	.	16e\	.	.
.	.	16g\	.	.
.	.	16a\	.	.
.	.	16b\JJ)	.	.
=42	=42	=42	=42	=42
8D\] 8F#] 8c]	.	(16dd/LL	.	.
.	.	16cc/	.	.
8r	.	16c/	.	.
.	.	16e/	.	.
8r	.	16f#/	.	.
.	.	16g/JJ	.	.
4r	.	16b/LL	.	.
.	.	16a/	.	.
.	.	16A/	.	.
.	.	16c/	.	.
8r	.	16d/	.	.
.	.	16e/JJ	.	.
=43	=43	=43	=43	=43
*	*	*^	*	*
8r	.	(>16g/LL)	4.ryy	.	.
.	.	[16f#/JJ	.	.	<
!	!	!LO:TX:a:i:t=ritard.	!	!	!
(<16DD/LL	.	8f#/L]	.	.	.
16AA/	.	.	.	.	.
16D/	.	[<8A/J [<8c 8e	.	.	.
16E/JJ	.	.	.	.	.
16G\LL	.	8e/L	4A\] 4c]	.	[ >
[16F#\J	.	.	.	.	.
8F#;\J])	.	8d;/J)	.	.	.
8r	.	[8d/	8ryy	.	]
*	*	*v	*v	*	*
=44	=44	=44	=44	=44
!LO:TX:a:B:t=a tempo	!	!	!	!
(8D/L	.	8d/]	.	.
!	!	!LO:TX:b:i:t=mezzo voce	!	!
8GG/	.	([4b^\	.	.
8D/J	.	.	.	.
8C#X/L	.	16b\KL]	.	.
.	.	8ee\)	.	.
8GG/	.	.	.	.
.	.	(16f#\L	.	.
8Cn/J)	.	16g\	.	.
.	.	[16a\JJ	.	.
!!LO:LB:g=original	!	!	!	!
=45	=45	=45	=45	=45
(8BB/L	.	16a\KL]	.	.
.	.	8dd\)	.	.
8GG/	.	.	.	.
.	.	(16e\L	.	.
8BB-X/J	.	16f#\	.	.
.	.	[16g\JJ	.	.
8AA/L	.	16g\KL]	.	.
.	.	8cc\)	.	.
8GG/	.	.	.	.
.	.	(16d\L	.	.
8AA-X/J)	.	16e\	.	.
.	.	16fn\JJ	.	.
=46	=46	=46	=46	=46
*	*	*^	*	*
(8GG/L	.	16e/LL	4.ryy	.	.
.	.	16A/JJ	.	.	.
8DD/	.	4cn/) [4d	.	.	.
8FF#/J	.	.	.	.	.
8GG/L	.	16d/KL]	4.B\	.	.
.	.	(<8b/	.	.	.
8DD/	.	.	.	.	.
.	.	16g/L	.	.	.
8GG/J)	.	16f#/	.	.	.
.	.	16e/JJ)	.	.	.
=47	=47	=47	=47	=47	=47
(8GG/L	.	(>16e/LL	4.ryy	.	.
.	.	16A/JJ	.	.	.
8DD/	.	4c/ [4d	.	.	.
8FF#/J	.	.	.	.	.
8GG/L	.	16d/KL]	4B\	.	<
.	.	8b/	.	.	.
8DD/	.	.	.	.	.
.	.	16fn/L	.	.	.
8GG#X/J)	.	16e/	8B^>\	.	.
.	.	16d/JJ)	.	.	.
=48	=48	=48	=48	=48	=48
(8AA/L	.	(16c/KL	4c\	.	.
.	.	8cc/	.	.	.
8DD/	.	.	.	.	.
.	.	16g/L	.	.	.
8AA#X/J	.	16f#/	8c#X^>\	.	.
.	.	16e/JJ	.	.	.
8BB/L	.	16d/KL	4d\	.	.
.	.	8dd/	.	.	.
8DD/	.	.	.	.	.
.	.	16a/L	.	.	.
8BB/J)	.	16g/	8d#X^>\	.	.
.	.	16f#/JJ)	.	.	.
!!LO:LB:g=original	!	!	!	!	!
=49	=49	=49	=49	=49	=49
(<8C/L	.	(16e/KL	4e\	.	.
.	.	8ee/	.	.	.
8DD/	.	.	.	.	.
.	.	16b/L	.	.	.
8C#X/J	.	16a/	8e^>\	.	.
.	.	16g/JJ	.	.	.
*	*	*ped	*	*	*
8D\)	.	16f#\KL	4.ryy	.	f
!	!	!LO:TX:b:i:t=riten.	!	!	!
.	.	8ccc;\	.	.	.
4DD;</	.	.	.	.	.
.	.	16aa~\L	.	.	.
.	.	16ff#~\	.	.	.
*	*	*Xped	*	*	*
.	.	16cc~;\JJ)	.	.	.
=50	=50	=50	=50	=50	=50
*^	*	*	*	*	*
(4c/	8A\L	.	16r	16ryy	.	.
!	!	!	!LO:TX:b:i:t=dolce	!	!	!
!	!	!	!LO:TX:a:B:t=a tempo	!	!	!
.	.	.	(8.f#/	16f#\LL	.	.
.	8D#X\	.	.	16cc\	.	.
.	.	.	.	[>16aa\JJ	.	.
8ryy	8E\J) 8G	.	16aa/LL]	8g\	.	.
.	.	.	16gg/JJ)	.	.	.
(4A/	8F#\L	.	16r	16ryy	.	.
.	.	.	(8.d#X/	16d#\LL	.	.
.	8BB\	.	.	16a\	.	.
.	.	.	.	[16ff#\JJ	.	.
8ryy	8C\J) 8E 8G	.	16ff#/LL]	8e\	.	.
.	.	.	16ee/JJ)	.	.	.
=51	=51	=51	=51	=51	=51	=51
(4Fn/	8D\L	.	16r	16ryy	.	.
.	.	.	(8.B/	16B\LL	.	.
.	8GG#X\	.	.	16fn\	.	.
.	.	.	.	[16dd\JJ	.	.
8ryy	8AA\J) 8C 8E	.	16dd/LL]	8c\	.	.
.	.	.	[16cc/JJ	.	.	.
4C/	(>8C\L	.	16cc/LL]	(4e\	.	>
.	.	.	16b/	.	.	.
.	.	.	8qdd/	.	.	.
.	8A\)	.	16cc/	.	.	.
.	.	.	16a/	.	.	.
8ryy	(8D\J 8A	.	16e/	8c\	.	]
.	.	.	16f#X/JJ	.	.	.
*v	*v	*	*	*	*	*
*	*	*v	*v	*	*
!!LO:LB:g=original	!	!	!	!
=52	=52	=52	=52	=52
!	!	!LO:TX:t=P:problem=staccato powyżej i poniżej	!	!
8G'/L)	.	8B'/)) 8g	.	.
!	!	!LO:TX:a:i:t=poco vivace	!	!
*	*	*ped	*	*
(8D/	.	(>16b/LL	.	pp
.	.	16d/	.	.
!	!	!LO:TX:b:i:t=leggiero	!	!
8GG/J	.	16b/	.	.
.	.	16g/JJ	.	.
8D/L	.	16cc#X/LL	.	.
.	.	16e/	.	.
8GG/	.	16cc#/	.	.
.	.	16a/	.	.
8D/J)	.	16dd/	.	.
*	*	*Xped	*	*
.	.	16f#/JJ)	.	.
=53	=53	=53	=53	=53
*	*	*ped	*	*
(8GG/L	.	(16g/LL	.	.
.	.	16e/	.	.
8D/	.	16b/	.	.
.	.	16d/	.	.
8GG/J	.	16b/	.	.
.	.	16g/JJ	.	.
8D/L	.	16cc#X/LL	.	.
.	.	16e/	.	.
8GG/	.	16cc#/	.	.
.	.	16a/	.	.
8D/J)	.	16dd/	.	.
*	*	*Xped	*	*
.	.	16f#/JJ)	.	.
=54	=54	=54	=54	=54
*	*	*ped	*	*
(8GG/L	.	16g/LL	.	.
.	.	(>16e/	.	.
8D/	.	16b/	.	.
.	.	16d/	.	.
8GG/J	.	16b/	.	.
.	.	16g/JJ	.	.
8D/L	.	16cc#X/LL	.	.
.	.	16e/	.	.
8GG/	.	16cc#/	.	.
.	.	16a/	.	.
8D/J)	.	16dd/	.	.
*	*	*Xped	*	*
.	.	16f#/JJ	.	.
=55	=55	=55	=55	=55
*	*	*ped	*	*
8GG/	.	16b/LL	.	.
.	.	16g/	.	.
16r	.	16d/JJ	.	.
16B\LL	.	16r	.	.
!LO:TX:b:i:t=l.	!	!	!	!
16D\	.	8r	.	.
16GG\JJ	.	.	.	.
!	!	!LO:N:vis=8	!	!
!LO:TX:b:i:t=r.	!	!	!	!
8GGG'yy/)	.	4GGG<'</)	.	.
!LO:TX:b:B:i:t=Scherzo D.C. al Fine.	!	!	!	!
*	*	*Xped	*	*
8r	.	.	.	.
=:|!	=:|!	=:|!	=:|!	=:|!
*-	*-	*-	*-	*-
!!!system-decoration: {(s1,s2)}
!!!RDF**kern: > = above
!!!RDF**kern: < = below
!!!ENC: Filip Voros
!!!END: 2022-03-04
!!!AIN: 2 piano
!!!ENC: Natalia Wrzos
!!!END: 2022-03-08
